logo-icons/gift.svg

<svg xmlns="http://www.w3.org/2000/svg" viewBox="0 0 124 105" enable-background="new 0 0 124 105"><style type="text/css">.st0{fill:#0F1131;}</style><g id="Images"><path class="st0" d="M52 52.6v52.5h-35.9c-2.6 0-4.7-2.1-4.7-4.7v-47.8h40.6zM112.6 52.6v47.9c0 2.6-2.1 4.7-4.7 4.7h-35.9v-52.6h40.6zM52 27v21.9h-39.5c-2.6 0-4.7-2.1-4.7-4.7v-12.5c0-2.6 2.1-4.7 4.7-4.7h39.5zM116.2 31.7v12.6c0 2.6-2.1 4.7-4.7 4.7h-39.5v-22h39.5c2.6 0 4.7 2.1 4.7 4.7zM100.9 1.7c10.8 6.9 7.3 20.7-3.9 20.7h-25v-11c0 .1 17.9-16.7 28.9-9.7zM23.1 1.7c-10.8 6.9-7.3 20.7 3.9 20.7h25v-11c0 .1-17.9-16.7-28.9-9.7zM56.3 27h11.4v78.1h-11.4zM68.6 14.1v9.3h-13.2v-9.3c0-1.4 1.2-2.6 2.6-2.6h8c1.5 0 2.6 1.1 2.6 2.6z"/></g></svg>

<?xml version="1.0" encoding="utf-8"?>
<!-- Generator: Adobe Illustrator 19.1.0, SVG Export Plug-In . SVG Version: 6.00 Build 0)  -->
<!DOCTYPE svg PUBLIC "-//W3C//DTD SVG 1.1//EN" "http://www.w3.org/Graphics/SVG/1.1/DTD/svg11.dtd">
<svg version="1.1" xmlns="http://www.w3.org/2000/svg" xmlns:xlink="http://www.w3.org/1999/xlink" x="0px" y="0px"
	 viewBox="0 0 124 105" style="enable-background:new 0 0 124 105;" xml:space="preserve">
<style type="text/css">
	.st0{fill:#0F1131;}
</style>
<g id="Buttons">
</g>
<g id="Layer_1">
</g>
<g id="Icons">
</g>
<g id="Images">
	<g>
		<path class="st0" d="M52,52.6v52.5H16.1c-2.6,0-4.7-2.1-4.7-4.7V52.6H52z"/>
		<path class="st0" d="M112.6,52.6v47.9c0,2.6-2.1,4.7-4.7,4.7H72V52.6H112.6z"/>
		<path class="st0" d="M52,27v21.9H12.5c-2.6,0-4.7-2.1-4.7-4.7V31.7c0-2.6,2.1-4.7,4.7-4.7H52z"/>
		<path class="st0" d="M116.2,31.7v12.6c0,2.6-2.1,4.7-4.7,4.7H72V27h39.5C114.1,27,116.2,29.1,116.2,31.7z"/>
		<path class="st0" d="M100.9,1.7c10.8,6.9,7.3,20.7-3.9,20.7H72v-11C72,11.5,89.9-5.3,100.9,1.7z"/>
		<path class="st0" d="M23.1,1.7C12.3,8.6,15.8,22.4,27,22.4h25v-11C52,11.5,34.1-5.3,23.1,1.7z"/>
		<rect x="56.3" y="27" class="st0" width="11.4" height="78.1"/>
		<path class="st0" d="M68.6,14.1v9.3H55.4v-9.3c0-1.4,1.2-2.6,2.6-2.6h8C67.5,11.5,68.6,12.6,68.6,14.1z"/>
	</g>
</g>
<g id="Background">
</g>
</svg>
